img/advantages-8.svg

<svg width="64" height="66" viewBox="0 0 64 66" fill="none" xmlns="http://www.w3.org/2000/svg">
<g clip-path="url(#clip0_96182_412)">
<path d="M32.7875 29.5453C31.8 29.5453 30.9875 28.7203 30.9875 27.6891V6.63867C31 3.32578 33.775 0.644531 37.2 0.644531C40.625 0.644531 43.4 3.33867 43.4 6.65156C43.4 7.66992 42.6 8.50781 41.6 8.50781C40.6 8.50781 39.8 7.68281 39.8 6.65156C39.8 5.38828 38.625 4.35703 37.1875 4.35703C35.75 4.35703 34.575 5.38828 34.575 6.65156V27.702C34.5875 28.7074 33.7875 29.5453 32.7875 29.5453Z" fill="#F0BF5F"/>
<path d="M53.3875 34.9078C52.4 34.9078 51.5875 34.0828 51.5875 33.0516V6.63867C51.6 3.32578 54.375 0.644531 57.8 0.644531C61.225 0.644531 64 3.32578 64 6.63867C64 7.65703 63.2 8.49492 62.2 8.49492C61.2125 8.49492 60.4 7.66992 60.4 6.63867C60.4 5.37539 59.225 4.34414 57.7875 4.34414C56.35 4.34414 55.175 5.37539 55.175 6.63867V33.0516C55.1875 34.0699 54.3875 34.9078 53.3875 34.9078Z" fill="#F0BF5F"/>
<path d="M42.5008 16.1133H32.8008C31.8133 16.1133 31.0008 15.2883 31.0008 14.257C31.0008 13.2258 31.8008 12.4008 32.8008 12.4008H42.5008C43.4883 12.4008 44.3008 13.2258 44.3008 14.257C44.3008 15.2883 43.4883 16.1133 42.5008 16.1133Z" fill="#F0BF5F"/>
<path d="M42.5008 29.5453H32.8008C31.8133 29.5453 31.0008 28.7203 31.0008 27.6891C31.0008 26.6578 31.8008 25.8328 32.8008 25.8328H42.5008C43.4883 25.8328 44.3008 26.6578 44.3008 27.6891C44.2883 28.7074 43.4883 29.5453 42.5008 29.5453Z" fill="#F0BF5F"/>
<path d="M53.3875 22.8293H43.6875C42.7 22.8293 41.8875 22.0043 41.8875 20.9731C41.8875 19.9418 42.6875 19.1168 43.6875 19.1168H53.3875C54.375 19.1168 55.1875 19.9418 55.1875 20.9731C55.1875 22.0043 54.3875 22.8293 53.3875 22.8293Z" fill="#F0BF5F"/>
<path d="M58.9625 48.3527C58.9625 50.5699 56.4 52.3617 53.225 52.3617C50.0625 52.3617 47.4875 50.5699 47.4875 48.3527C47.4875 50.5699 44.925 52.3617 41.75 52.3617C38.5875 52.3617 36.0125 50.5699 36.0125 48.3527H36.1C36.1 50.5699 33.5375 52.3617 30.3625 52.3617C27.1875 52.3617 24.625 50.5699 24.625 48.3527C24.625 50.5699 22.0625 52.3617 18.8875 52.3617C15.7125 52.3617 13.15 50.5699 13.15 48.3527H13.2375C13.2375 50.5699 10.675 52.3617 7.49998 52.3617C4.32498 52.3617 1.76248 50.5699 1.76248 48.3527V37.009C1.76248 39.2262 4.32498 41.018 7.49998 41.018C10.675 41.018 13.2375 39.2262 13.2375 37.009H13.15C13.15 39.2262 15.7125 41.018 18.8875 41.018C22.0625 41.018 24.625 39.2262 24.625 37.009C24.625 39.2262 27.1875 41.018 30.3625 41.018C33.5375 41.018 36.1 39.2262 36.1 37.009H36.0125C36.0125 39.2262 38.575 41.018 41.75 41.018C44.925 41.018 47.4875 39.2262 47.4875 37.009C47.4875 39.2262 50.05 41.018 53.225 41.018C56.4 41.018 58.9625 39.2262 58.9625 37.009V48.3527Z" fill="#CEE8FA"/>
<path d="M53.225 54.218C50.9 54.218 48.8625 53.4445 47.4875 52.1941C46.1125 53.4445 44.075 54.218 41.75 54.218C39.475 54.218 37.4375 53.4574 36.0625 52.2328C34.6875 53.4574 32.65 54.218 30.375 54.218C28.05 54.218 26.0125 53.4445 24.6375 52.1941C23.2625 53.4445 21.225 54.218 18.9 54.218C16.625 54.218 14.5875 53.4574 13.2125 52.2328C11.8375 53.4703 9.8 54.218 7.525 54.218C3.3 54.218 0 51.6398 0 48.3527V37.009C0 35.9906 0.8 35.1527 1.8 35.1527C2.8 35.1527 3.6 35.9777 3.6 37.009C3.6 38.0016 5.325 39.1617 7.5375 39.1617C9.5375 39.1617 11.075 38.2723 11.4125 37.3699C11.4 37.2539 11.4 37.125 11.4 37.009C11.4 35.9906 12.2 35.1527 13.2 35.1527H13.2875C14.275 35.1527 15.0875 35.9777 15.0875 37.009C15.0875 37.125 15.0875 37.2539 15.075 37.3699C15.4125 38.2723 16.95 39.1617 18.95 39.1617C21.1625 39.1617 22.8875 38.0016 22.8875 37.009C22.8875 35.9906 23.6875 35.1527 24.6875 35.1527C25.6875 35.1527 26.4875 35.9777 26.4875 37.009C26.4875 38.0016 28.2125 39.1617 30.425 39.1617C32.425 39.1617 33.9625 38.2723 34.3 37.3699C34.2875 37.2539 34.2875 37.125 34.2875 37.009C34.2875 35.9906 35.0875 35.1527 36.0875 35.1527H36.175C37.1625 35.1527 37.975 35.9777 37.975 37.009C37.975 37.125 37.975 37.2539 37.9625 37.3699C38.3 38.2723 39.8375 39.1617 41.8375 39.1617C44.05 39.1617 45.775 38.0016 45.775 37.009C45.775 35.9906 46.575 35.1527 47.575 35.1527C48.5625 35.1527 49.375 35.9777 49.375 37.009C49.375 38.0016 51.1 39.1617 53.3125 39.1617C55.525 39.1617 57.25 38.0016 57.25 37.009C57.25 35.9906 58.05 35.1527 59.05 35.1527C60.05 35.1527 60.85 35.9777 60.85 37.009V48.3527C60.7625 51.6398 57.45 54.218 53.225 54.218ZM49.2875 48.3527C49.2875 49.3453 51.0125 50.5055 53.225 50.5055C55.4375 50.5055 57.1625 49.3453 57.1625 48.3527V42.0234C56.025 42.552 54.675 42.8613 53.225 42.8613C50.9 42.8613 48.8625 42.0879 47.4875 40.8375C46.1125 42.0879 44.075 42.8613 41.75 42.8613C39.475 42.8613 37.4375 42.1008 36.0625 40.8762C34.6875 42.1137 32.65 42.8613 30.375 42.8613C28.05 42.8613 26.0125 42.0879 24.6375 40.8375C23.2625 42.0879 21.225 42.8613 18.9 42.8613C16.625 42.8613 14.5875 42.1008 13.2125 40.8762C11.8375 42.1137 9.8 42.8613 7.525 42.8613C6.075 42.8613 4.725 42.552 3.5875 42.0234V48.3527C3.5875 49.3453 5.3125 50.5055 7.525 50.5055C9.525 50.5055 11.0625 49.616 11.4 48.7137C11.3875 48.5977 11.3875 48.4688 11.3875 48.3527C11.3875 47.3344 12.1875 46.4965 13.1875 46.4965H13.275C14.2625 46.4965 15.075 47.3215 15.075 48.3527C15.075 48.4688 15.075 48.5977 15.0625 48.7137C15.4 49.616 16.9375 50.5055 18.9375 50.5055C21.15 50.5055 22.875 49.3453 22.875 48.3527C22.875 47.3344 23.675 46.4965 24.675 46.4965C25.675 46.4965 26.475 47.3215 26.475 48.3527C26.475 49.3453 28.2 50.5055 30.4125 50.5055C32.4125 50.5055 33.95 49.616 34.2875 48.7137C34.275 48.5977 34.275 48.4688 34.275 48.3527C34.275 47.3344 35.075 46.4965 36.075 46.4965H36.1625C37.15 46.4965 37.9625 47.3215 37.9625 48.3527C37.9625 48.4688 37.9625 48.5977 37.95 48.7137C38.2875 49.616 39.825 50.5055 41.825 50.5055C44.0375 50.5055 45.7625 49.3453 45.7625 48.3527C45.7625 47.3344 46.5625 46.4965 47.5625 46.4965C48.4875 46.5094 49.2875 47.3344 49.2875 48.3527Z" fill="#2D527C"/>
<path d="M41.7625 65.3555C39.4625 65.3555 37.4375 64.595 36.075 63.3704C34.7 64.595 32.675 65.3555 30.3875 65.3555C28.0625 65.3555 26.025 64.5821 24.65 63.3317C23.275 64.5821 21.2375 65.3555 18.9125 65.3555C14.6875 65.3555 11.3875 62.7774 11.3875 59.4903C11.3875 58.4719 12.1875 57.634 13.1875 57.634H13.275C14.2625 57.634 15.075 58.459 15.075 59.4903C15.075 59.5934 15.0625 59.7094 15.05 59.8125C15.3625 60.7278 16.95 61.6559 18.9375 61.6559C21.15 61.6559 22.875 60.4958 22.875 59.5032C22.875 58.4848 23.675 57.6469 24.675 57.6469C25.675 57.6469 26.475 58.4719 26.475 59.5032C26.475 60.4958 28.2 61.6559 30.4125 61.6559C32.375 61.6559 33.9375 60.7536 34.275 59.8512C34.2625 59.7352 34.2625 59.6192 34.2625 59.4903C34.2625 58.4719 35.0625 57.634 36.0625 57.634H36.15C37.1375 57.634 37.95 58.459 37.95 59.4903C37.95 59.6063 37.95 59.7223 37.9375 59.8512C38.275 60.7536 39.85 61.6559 41.8 61.6559C44.0125 61.6559 45.7375 60.4958 45.7375 59.5032C45.7375 58.4848 46.5375 57.6469 47.5375 57.6469C48.525 57.6469 49.3375 58.4719 49.3375 59.5032C49.2875 62.7903 45.9875 65.3555 41.7625 65.3555Z" fill="#2D527C"/>
</g>
<defs>
<clipPath id="clip0_96182_412">
<rect width="64" height="66" fill="white"/>
</clipPath>
</defs>
</svg>

<svg width="64" height="66" fill="none" xmlns="http://www.w3.org/2000/svg"><g clip-path="url(#a)"><path d="M32.788 29.545c-.988 0-1.8-.825-1.8-1.856V6.64C31 3.326 33.775.645 37.2.645s6.2 2.694 6.2 6.007c0 1.018-.8 1.856-1.8 1.856s-1.8-.825-1.8-1.856c0-1.264-1.175-2.295-2.612-2.295-1.438 0-2.613 1.031-2.613 2.295v21.05c.012 1.005-.788 1.843-1.788 1.843ZM53.388 34.908c-.988 0-1.8-.825-1.8-1.856V6.639C51.6 3.326 54.374.645 57.8.645S64 3.325 64 6.639c0 1.018-.8 1.856-1.8 1.856-.988 0-1.8-.825-1.8-1.856 0-1.264-1.175-2.295-2.612-2.295-1.438 0-2.613 1.031-2.613 2.295v26.413c.013 1.018-.787 1.856-1.787 1.856Z" fill="#F0BF5F"/><path d="M42.5 16.113h-9.7c-.987 0-1.8-.825-1.8-1.856 0-1.031.8-1.856 1.8-1.856h9.7c.988 0 1.8.825 1.8 1.856 0 1.031-.812 1.856-1.8 1.856ZM42.5 29.545h-9.7c-.987 0-1.8-.825-1.8-1.856 0-1.031.8-1.856 1.8-1.856h9.7c.988 0 1.8.825 1.8 1.856-.012 1.018-.812 1.856-1.8 1.856ZM53.388 22.83h-9.7c-.988 0-1.8-.826-1.8-1.857 0-1.031.8-1.856 1.8-1.856h9.7c.987 0 1.8.825 1.8 1.856 0 1.031-.8 1.856-1.8 1.856Z" fill="#F0BF5F"/><path d="M58.962 48.353c0 2.217-2.562 4.009-5.737 4.009-3.163 0-5.738-1.792-5.738-4.01 0 2.218-2.562 4.01-5.737 4.01-3.163 0-5.737-1.792-5.737-4.01h.087c0 2.218-2.563 4.01-5.738 4.01-3.174 0-5.737-1.792-5.737-4.01 0 2.218-2.563 4.01-5.738 4.01-3.175 0-5.737-1.792-5.737-4.01h.088c0 2.218-2.563 4.01-5.738 4.01-3.175 0-5.738-1.792-5.738-4.01V37.01c0 2.217 2.563 4.009 5.738 4.009 3.175 0 5.738-1.792 5.738-4.009h-.088c0 2.217 2.563 4.009 5.737 4.009 3.175 0 5.738-1.792 5.738-4.009 0 2.217 2.563 4.009 5.738 4.009 3.175 0 5.737-1.792 5.737-4.009h-.087c0 2.217 2.562 4.009 5.737 4.009 3.175 0 5.737-1.792 5.737-4.009 0 2.217 2.563 4.009 5.738 4.009 3.175 0 5.737-1.792 5.737-4.009v11.344Z" fill="#CEE8FA"/><path d="M53.225 54.218c-2.325 0-4.363-.774-5.738-2.024-1.375 1.25-3.412 2.024-5.737 2.024-2.275 0-4.313-.76-5.688-1.985-1.374 1.224-3.412 1.985-5.687 1.985-2.325 0-4.363-.774-5.738-2.024-1.375 1.25-3.412 2.024-5.737 2.024-2.275 0-4.312-.76-5.687-1.985-1.375 1.237-3.413 1.985-5.688 1.985C3.3 54.218 0 51.64 0 48.353V37.009c0-1.018.8-1.856 1.8-1.856s1.8.825 1.8 1.856c0 .993 1.725 2.153 3.937 2.153 2 0 3.538-.89 3.875-1.792-.012-.116-.012-.245-.012-.361 0-1.018.8-1.856 1.8-1.856h.088c.987 0 1.8.825 1.8 1.856 0 .116 0 .245-.013.36.338.903 1.875 1.793 3.875 1.793 2.213 0 3.938-1.16 3.938-2.153 0-1.018.8-1.856 1.8-1.856s1.8.825 1.8 1.856c0 .993 1.724 2.153 3.937 2.153 2 0 3.537-.89 3.875-1.792-.012-.116-.012-.245-.012-.361 0-1.018.8-1.856 1.8-1.856h.087c.988 0 1.8.825 1.8 1.856 0 .116 0 .245-.013.36.338.903 1.875 1.793 3.875 1.793 2.213 0 3.938-1.16 3.938-2.153 0-1.018.8-1.856 1.8-1.856.987 0 1.8.825 1.8 1.856 0 .993 1.725 2.153 3.938 2.153 2.212 0 3.937-1.16 3.937-2.153 0-1.018.8-1.856 1.8-1.856s1.8.825 1.8 1.856v11.344c-.087 3.287-3.4 5.865-7.625 5.865Zm-3.938-5.865c0 .992 1.726 2.152 3.938 2.152s3.938-1.16 3.938-2.152v-6.33c-1.138.529-2.488.838-3.938.838-2.325 0-4.363-.773-5.738-2.023-1.375 1.25-3.412 2.023-5.737 2.023-2.275 0-4.313-.76-5.688-1.985-1.374 1.238-3.412 1.985-5.687 1.985-2.325 0-4.363-.773-5.738-2.023-1.375 1.25-3.412 2.023-5.737 2.023-2.275 0-4.312-.76-5.687-1.985-1.375 1.238-3.413 1.985-5.688 1.985-1.45 0-2.8-.309-3.938-.838v6.33c0 .992 1.725 2.152 3.938 2.152 2 0 3.537-.889 3.875-1.791-.013-.116-.013-.245-.013-.361 0-1.019.8-1.857 1.8-1.857h.088c.987 0 1.8.825 1.8 1.857 0 .116 0 .245-.012.36.337.903 1.874 1.792 3.874 1.792 2.213 0 3.938-1.16 3.938-2.152 0-1.019.8-1.857 1.8-1.857s1.8.825 1.8 1.857c0 .992 1.725 2.152 3.938 2.152 2 0 3.537-.889 3.875-1.791-.013-.116-.013-.245-.013-.361 0-1.019.8-1.857 1.8-1.857h.087c.988 0 1.8.825 1.8 1.857 0 .116 0 .245-.012.36.337.903 1.875 1.792 3.875 1.792 2.212 0 3.938-1.16 3.938-2.152 0-1.019.8-1.857 1.8-1.857.924.013 1.724.838 1.724 1.857ZM41.763 65.356c-2.3 0-4.325-.761-5.688-1.986-1.375 1.225-3.4 1.986-5.688 1.986-2.325 0-4.362-.774-5.737-2.024-1.375 1.25-3.412 2.024-5.737 2.024-4.226 0-7.526-2.579-7.526-5.866 0-1.018.8-1.856 1.8-1.856h.088c.987 0 1.8.825 1.8 1.856 0 .103-.012.22-.025.322.313.916 1.9 1.844 3.887 1.844 2.213 0 3.938-1.16 3.938-2.153 0-1.018.8-1.856 1.8-1.856s1.8.825 1.8 1.856c0 .993 1.725 2.153 3.938 2.153 1.962 0 3.524-.902 3.862-1.805-.012-.116-.012-.232-.012-.36 0-1.02.8-1.857 1.8-1.857h.087c.988 0 1.8.825 1.8 1.856 0 .116 0 .232-.013.361.338.903 1.913 1.805 3.863 1.805 2.213 0 3.938-1.16 3.938-2.153 0-1.018.8-1.856 1.8-1.856.987 0 1.8.825 1.8 1.856-.05 3.287-3.35 5.853-7.575 5.853Z" fill="#2D527C"/></g><defs><clipPath id="a"><path fill="#fff" d="M0 0h64v66H0z"/></clipPath></defs></svg>
